**kern	**kern	**dynam
*part1	*part1	*part1
*staff2	*staff1	*
*I"Piano	*	*
*clefF4	*clefG2	*
*k[b-]	*k[b-]	*
=1	=1	=1
2A	8r	>
.	8fL	.
.	8cc	.
.	8ffJ	.
2A	8r	.
.	8fL	.
.	8cc#X	.
.	8ffJ	.
=	=	=
[2B-	8r	.
.	8fL	.
.	8b-	.
.	8cc#XJ	.
2B-]	8eeL	.
.	8dd	.
.	8b-	.
.	8aJ	.
=	=	=
[1BB- [1G	[1d [1f [1g	] p
=	=	=
2BB-] 2G]	2d] 2f] 2g]	.
2r	2r	.
=	=	=
1C 1B-	[1c [1e [1g	.
=	=	=
1CC	(4c] 4e] 4g]	.
.	4d 4f 4b-	>
.	4c 4e 4a	.
.	[4B- [4e [4g	.
=	=	=
1FF 1C	2B-]) 2e] 2g]	.
.	4A 4c 4f	.
.	4r	]
=:|!	=:|!	=:|!
*-	*-	*-
!!!system-decoration: {(s1,s2)}
